Hatter-kde-dark/actions/22/resource-group-new.svg

<svg xmlns="http://www.w3.org/2000/svg" viewBox="0 0 22 22">
  <defs id="defs3051">
    <style type="text/css" id="current-color-scheme">
      .ColorScheme-Text {
        color:#dedede;
      }
      </style>
  </defs>
 <path 
    style="fill:currentColor;fill-opacity:1;stroke:none" 
    d="M 14 3 C 12.338 3 11 4.338 11 6 C 11 7.662 12.338 9 14 9 C 15.662 9 17 7.662 17 6 C 17 4.338 15.662 3 14 3 z M 8 6 C 6.3380003 6 5 7.3380003 5 9 C 5 10.662 6.3380003 12 8 12 C 9.6619997 12 11 10.662 11 9 C 11 7.3380003 9.6619997 6 8 6 z M 14 10 C 13.353654 10 12.744006 10.134157 12.181641 10.361328 L 12.636719 11.275391 C 13.064535 11.114885 13.514485 11 14 11 C 15.482985 11 16.758385 11.807292 17.449219 13 L 18.580078 13 C 17.810617 11.232833 16.056835 10 14 10 z M 8 13 C 5.2299834 13 3 15.229983 3 18 L 3 19 L 13 19 L 13 18 C 13 15.229983 10.770017 13 8 13 z M 8 14 C 10.216017 14 12 15.783983 12 18 L 4 18 C 4 15.783983 5.7839834 14 8 14 z M 16 14 L 16 16 L 14 16 L 14 17 L 16 17 L 16 19 L 17 19 L 17 17 L 19 17 L 19 16 L 17 16 L 17 14 L 16 14 z "
    class="ColorScheme-Text"
    />  
</svg>

<?xml version="1.0" encoding="UTF-8"?>
<svg viewBox="0 0 22 22" xmlns="http://www.w3.org/2000/svg">
 <defs id="defs3051">
  <style id="current-color-scheme" type="text/css">.ColorScheme-Text {
        color:#dedede;
      }</style>
 </defs>
 <path class="ColorScheme-Text" d="m14 3c-1.662 0-3 1.338-3 3s1.338 3 3 3 3-1.338 3-3-1.338-3-3-3zm-6 3c-1.662 0-3 1.338-3 3 0 1.662 1.338 3 3 3s3-1.338 3-3c0-1.662-1.338-3-3-3zm6 4c-0.64635 0-1.256 0.13416-1.8184 0.36133l0.45508 0.91406c0.42782-0.16051 0.87777-0.27539 1.3633-0.27539 1.483 0 2.7584 0.80729 3.4492 2h1.1309c-0.76946-1.7672-2.5232-3-4.5801-3zm-6 3c-2.77 0-5 2.23-5 5v1h10v-1c0-2.77-2.23-5-5-5zm0 1c2.216 0 4 1.784 4 4h-8c0-2.216 1.784-4 4-4zm8 0v2h-2v1h2v2h1v-2h2v-1h-2v-2h-1z" fill="currentColor"/>
</svg>
